src/images/ruoshin.svg

<svg width="183" height="183" viewBox="0 0 183 183" fill="none" xmlns="http://www.w3.org/2000/svg">
<circle cx="91.5" cy="91.5" r="91.5" fill="url(#paint0_linear)"/>
<mask id="mask0" mask-type="alpha" maskUnits="userSpaceOnUse" x="0" y="0" width="183" height="183">
<circle cx="91.5" cy="91.5" r="91.5" fill="url(#paint1_linear)"/>
</mask>
<g mask="url(#mask0)">
<path d="M102.126 153.175L97.7363 154.389C94.4948 155.28 91.0723 155.28 87.8307 154.389L83.1322 153.116C82.3434 152.903 81.6469 152.437 81.1509 151.789C80.6549 151.142 80.3871 150.349 80.389 149.534V133.674H104.839V149.594C104.841 150.404 104.577 151.193 104.087 151.84C103.597 152.487 102.908 152.956 102.126 153.175V153.175Z" fill="#FFD0A9"/>
<path d="M29.6639 85.6081C29.6639 118.541 53.5351 143.017 93.9855 143.017C127.812 143.017 148.85 118.541 148.85 85.6081C148.85 52.6753 124.76 25.9707 90.9929 25.9707C57.226 25.9707 29.6639 52.6753 29.6639 85.6081Z" fill="#FFD0A9"/>
<path d="M79.1746 83.5526L79.1904 83.5523H79.2061C79.8228 83.5523 80.45 83.3463 80.891 83.0288C81.3273 82.7146 81.4527 82.4013 81.4527 82.1658C81.4527 81.9355 81.3327 81.6315 80.896 81.3197C80.4528 81.0034 79.8146 80.7913 79.177 80.7789L79.1746 80.7788C78.3195 80.7609 77.5109 80.4342 76.8748 79.8761C76.2411 79.32 75.815 78.5681 75.6406 77.7509L75.6405 77.7509L75.6377 77.7373C75.1262 75.2264 74.0102 72.5485 72.3285 70.5317C70.6665 68.5387 68.5128 67.249 65.8239 67.249C62.7719 67.249 60.242 68.9473 58.4096 71.7419C56.5659 74.5537 55.5239 78.362 55.5239 82.1658C55.5239 85.9674 56.5731 89.7757 58.4212 92.5885C60.259 95.3855 62.7897 97.0824 65.8239 97.0824C68.5109 97.0824 70.6504 95.7947 72.3061 93.8018C73.9825 91.7841 75.1012 89.1022 75.6407 86.5798C75.8152 85.7629 76.2412 85.0113 76.8748 84.4553C77.5109 83.8972 78.3195 83.5706 79.1746 83.5526Z" fill="#FFEFE1" stroke="black" stroke-width="3"/>
<path d="M66.7925 89.6775C69.9824 89.6775 72.5683 86.2386 72.5683 81.9965C72.5683 77.7543 69.9824 74.3154 66.7925 74.3154C63.6026 74.3154 61.0167 77.7543 61.0167 81.9965C61.0167 86.2386 63.6026 89.6775 66.7925 89.6775Z" fill="black"/>
<path d="M109.674 82.5575L109.659 82.5572H109.643C109.026 82.5572 108.399 82.3512 107.958 82.0337C107.522 81.7195 107.396 81.4062 107.396 81.1707C107.396 80.9404 107.516 80.6363 107.953 80.3246C108.396 80.0082 109.034 79.7961 109.672 79.7838L109.674 79.7837C110.529 79.7658 111.338 79.4391 111.974 78.881C112.608 78.3249 113.034 77.573 113.208 76.7558L113.208 76.7558L113.211 76.7422C113.723 74.2313 114.839 71.5534 116.52 69.5366C118.182 67.5436 120.336 66.2539 123.025 66.2539C126.077 66.2539 128.607 67.9522 130.439 70.7468C132.283 73.5586 133.325 77.3669 133.325 81.1707C133.325 84.9722 132.276 88.7805 130.428 91.5934C128.59 94.3904 126.059 96.0873 123.025 96.0873C120.338 96.0873 118.198 94.7996 116.543 92.8067C114.866 90.789 113.748 88.1071 113.208 85.5847C113.034 84.7677 112.608 84.0161 111.974 83.4602C111.338 82.9021 110.529 82.5755 109.674 82.5575Z" fill="#FFEFE1" stroke="black" stroke-width="3"/>
<path d="M122.864 88.6824C126.054 88.6824 128.64 85.2434 128.64 81.0013C128.64 76.7592 126.054 73.3203 122.864 73.3203C119.675 73.3203 117.089 76.7592 117.089 81.0013C117.089 85.2434 119.675 88.6824 122.864 88.6824Z" fill="black"/>
<path d="M93.387 98.0054H95.6315C97.876 98.0054 99.6914 96.7318 99.6914 94.4932C99.6914 92.2545 97.876 90.981 95.6315 90.981" stroke="black" stroke-width="3" stroke-linecap="round" stroke-linejoin="round"/>
<path d="M86.3344 114.979C88.848 115.568 91.4236 115.852 94.0055 115.825C96.8093 115.84 99.604 115.505 102.325 114.83" stroke="black" stroke-width="3" stroke-linecap="round" stroke-linejoin="round"/>
<path fill-rule="evenodd" clip-rule="evenodd" d="M99.6638 21.4289C126.658 24.9534 145.986 46.1851 149.079 72.9517C150.457 79.3696 151.198 85.891 151.305 92.4572C151.582 109.363 152.175 142.188 152.769 153.143C152.895 155.48 153.022 157.684 153.142 159.78L153.143 159.783C153.795 171.141 154.267 179.358 153.581 188.643C153.08 195.433 151.602 207.368 150.544 215.508C149.9 220.462 145.672 224.143 140.677 224.143H121.54C121.274 214.268 120.621 206.257 119.991 198.525C119.44 191.76 118.906 185.209 118.664 177.811C118.273 165.869 117.164 162.217 114.673 154.016L114.673 154.016C113.574 150.398 112.206 145.895 110.513 139.405C126.349 131.783 134.664 112.745 134.664 89.0475C134.664 58.0972 118.08 33.0002 91.5287 33.0002C64.9774 33.0002 45.6639 58.0972 45.6639 89.0475C45.6639 113.938 56.2782 133.689 76.9785 140.468C72.3227 158.148 72.0427 160.003 70.3969 170.905L70.3968 170.905C69.7793 174.996 68.9694 180.361 67.6639 188.313C67.8275 198.455 67.4971 206.552 67.1731 214.493L67.1731 214.493L67.1731 214.493C67.0424 217.694 66.9129 220.87 66.8171 224.143H36.8008C31.1216 224.143 26.6065 219.426 27.079 213.767C27.8078 205.037 29.2328 192.237 31.8727 181.143C35.0275 167.885 31.4717 140.019 29.0345 124.387C27.8653 116.889 27.2889 109.315 27.5973 101.732L28.0312 91.0608C28.2725 85.1275 29.0417 79.2275 30.3299 73.4307L32.3938 64.1432L32.7443 63.9477C39.5326 41.2008 59.9034 24.0469 84.6638 21.2997C85.8776 21.1651 87.1019 21.6241 88.3356 22.0867C89.4354 22.499 90.5426 22.9142 91.6566 22.9142C92.9221 22.9142 94.174 22.5235 95.4116 22.1373C96.8488 21.6889 98.2666 21.2465 99.6638 21.4289Z" fill="black"/>
<path d="M69.6023 32.069C82.6517 30.1975 96.4122 32.9898 108.187 40.9646C131.313 56.6268 138.718 86.8182 126.472 111.112" stroke="black"/>
<path d="M111.475 32.069C98.4254 30.1975 84.6648 32.9898 72.8898 40.9646C49.7643 56.6268 42.3593 86.8182 54.6053 111.112" stroke="black"/>
<path d="M114.966 29.3655C104.059 29.4001 92.0226 33.0702 81.0977 40.4693C59.6419 55.0006 49.9518 78.849 57.6639 95.9998" stroke="black"/>
<path d="M87.5215 78.1387H101.487L100.49 82.1185C100.49 82.1185 97.4969 81.1236 94.0055 81.1236C90.5141 81.1235 88.519 82.1185 88.519 82.1185L87.5215 78.1387Z" fill="black"/>
<rect x="39.6393" y="76.1489" width="4.98772" height="4.97476" rx="1" fill="black"/>
<rect x="144.381" y="76.1489" width="4.98772" height="4.97476" rx="1" fill="black"/>
<path d="M88.5165 84.606C88.5165 96.9644 78.4712 106.987 66.0742 106.987C53.6773 106.987 43.632 96.9644 43.632 84.606C43.632 72.2475 53.6773 62.2246 66.0742 62.2246C78.4712 62.2246 88.5165 72.2475 88.5165 84.606Z" stroke="black" stroke-width="2"/>
<path d="M145.377 84.606C145.377 96.9644 135.331 106.987 122.934 106.987C110.537 106.987 100.492 96.9644 100.492 84.606C100.492 72.2475 110.537 62.2246 122.934 62.2246C135.331 62.2246 145.377 72.2475 145.377 84.606Z" stroke="black" stroke-width="2"/>
</g>
<defs>
<linearGradient id="paint0_linear" x1="168.995" y1="21.1154" x2="-16.7016" y2="76.0549" gradientUnits="userSpaceOnUse">
<stop stop-color="#148EFF"/>
<stop offset="1" stop-color="#D0C9FF"/>
</linearGradient>
<linearGradient id="paint1_linear" x1="168.995" y1="21.1154" x2="-16.7016" y2="76.0549" gradientUnits="userSpaceOnUse">
<stop stop-color="#148EFF"/>
<stop offset="1" stop-color="#D0C9FF"/>
</linearGradient>
</defs>
</svg>

<svg xmlns="http://www.w3.org/2000/svg" viewBox="0 0 90 90" fill-rule="evenodd"><style><![CDATA[.B{fill-rule:nonzero}.C{stroke:#000}.D{stroke-width:3}]]></style><g transform="scale(.491803)"><circle cx="91.5" cy="91.5" r="91.5" fill="url(#B)"/><clipPath id="A"><circle cx="91.5" cy="91.5" r="91.5"/></clipPath><g clip-path="url(#A)"><g fill="#ffd0a9" class="B"><path d="M102.126 153.175l-4.39 1.214c-3.241.891-6.664.891-9.905 0l-4.699-1.273a3.71 3.71 0 0 1-1.981-1.327 3.69 3.69 0 0 1-.762-2.255v-15.86h24.45v15.92c.002.81-.262 1.599-.752 2.246a3.72 3.72 0 0 1-1.961 1.335z"/><path d="M29.664 85.608c0 32.933 23.871 57.409 64.322 57.409 33.826 0 54.864-24.476 54.864-57.409s-24.09-59.637-57.857-59.637-61.329 26.704-61.329 59.637z"/></g><path d="M79.175 83.553l.015-.001h.016c.617 0 1.244-.206 1.685-.523.436-.314.562-.628.562-.863 0-.23-.12-.534-.557-.846-.443-.317-1.081-.529-1.719-.541h-.002c-.855-.018-1.664-.345-2.3-.903s-1.06-1.308-1.234-2.125h0l-.003-.014c-.512-2.511-1.628-5.188-3.309-7.205-1.662-1.993-3.816-3.283-6.505-3.283-3.052 0-5.582 1.698-7.414 4.493-1.844 2.812-2.886 6.62-2.886 10.424s1.049 7.61 2.897 10.423c1.838 2.796 4.369 4.493 7.403 4.493 2.687 0 4.826-1.287 6.482-3.28 1.677-2.018 2.795-4.7 3.335-7.222.174-.817.6-1.569 1.234-2.125a3.6 3.6 0 0 1 2.3-.902z" fill="#ffefe1" class="B C D"/><path d="M66.793 89.678c3.189 0 5.775-3.439 5.775-7.681s-2.586-7.682-5.775-7.682-5.776 3.439-5.776 7.682 2.586 7.681 5.776 7.681z" class="B"/><path d="M109.674 82.558l-.015-.001h-.016c-.617 0-1.244-.206-1.685-.523-.436-.314-.562-.628-.562-.863s.12-.535.557-.846c.443-.317 1.081-.529 1.719-.541h.002c.855-.018 1.664-.345 2.3-.903s1.06-1.308 1.234-2.125l.003-.014c.512-2.511 1.628-5.189 3.309-7.205 1.662-1.993 3.816-3.283 6.505-3.283 3.052 0 5.582 1.698 7.414 4.493 1.844 2.812 2.886 6.62 2.886 10.424s-1.049 7.61-2.897 10.422c-1.838 2.797-4.369 4.494-7.403 4.494-2.687 0-4.827-1.287-6.482-3.28-1.677-2.018-2.795-4.7-3.335-7.222-.174-.817-.6-1.569-1.234-2.125a3.6 3.6 0 0 0-2.3-.902z" fill="#ffefe1" class="B C D"/><path d="M122.864 88.682c3.19 0 5.776-3.439 5.776-7.681s-2.586-7.681-5.776-7.681-5.775 3.439-5.775 7.681 2.586 7.681 5.775 7.681z" class="B"/><g fill="none" stroke-linecap="round" stroke-linejoin="round" class="C D"><path d="M93.387 98.005h2.245c2.244 0 4.059-1.273 4.059-3.512s-1.815-3.512-4.059-3.512m-9.298 23.998a32.16 32.16 0 0 0 7.672.846c2.803.015 5.598-.32 8.319-.995"/></g><path d="M99.664 21.429c26.994 3.524 46.322 24.756 49.415 51.523 1.378 6.418 2.119 12.939 2.226 19.505l1.464 60.686.373 6.637.001.003c.652 11.358 1.124 19.575.438 28.86-.501 6.79-1.979 18.725-3.037 26.865-.644 4.954-4.872 8.635-9.867 8.635H121.54c-.266-9.875-.919-17.886-1.549-25.618-.551-6.765-1.085-13.316-1.327-20.714-.391-11.942-1.5-15.594-3.991-23.795-1.099-3.618-2.467-8.121-4.16-14.611 15.836-7.622 24.151-26.66 24.151-50.357C134.664 58.097 118.08 33 91.529 33S45.664 58.097 45.664 89.048c0 24.89 10.614 44.641 31.315 51.42-4.656 17.68-4.936 19.535-6.582 30.437h0l-2.733 17.408c.164 10.142-.167 18.239-.491 26.18l-.356 9.65H36.801c-5.679 0-10.194-4.717-9.722-10.376.729-8.73 2.154-21.53 4.794-32.624 3.155-13.258-.401-41.124-2.838-56.756-1.17-7.498-1.746-15.072-1.438-22.655l.434-10.671a100.09 100.09 0 0 1 2.299-17.63l2.064-9.288.35-.195c6.789-22.747 27.159-39.901 51.92-42.648 1.214-.135 2.438.324 3.672.787 1.099.412 2.207.827 3.321.827 1.265 0 2.517-.391 3.755-.777 1.437-.448 2.855-.89 4.252-.708z"/><g fill="none" class="C"><path d="M69.602 32.069a54.73 54.73 0 0 1 38.585 8.896c23.126 15.662 30.531 45.853 18.285 70.147"/><path d="M111.475 32.069a54.73 54.73 0 0 0-38.585 8.896c-23.126 15.662-30.531 45.853-18.285 70.147"/><path d="M114.966 29.366c-10.907.034-22.943 3.704-33.868 11.103C59.642 55.001 49.952 78.849 57.664 96"/></g><path d="M87.522 78.139h13.965l-.997 3.98s-2.993-.995-6.484-.995-5.487.995-5.487.995l-.997-3.98z" class="B"/><path d="M39.639 76.149h4.988v4.975h-4.988zm104.742 0h4.988v4.975h-4.988z"/><g fill="none" stroke-width="2" class="C"><path d="M88.516 84.606c0 12.358-10.045 22.381-22.442 22.381S43.632 96.964 43.632 84.606s10.045-22.381 22.442-22.381 22.442 10.023 22.442 22.381zm56.861 0c0 12.358-10.046 22.381-22.443 22.381s-22.442-10.023-22.442-22.381 10.045-22.381 22.442-22.381 22.443 10.023 22.443 22.381z"/></g></g></g><defs><linearGradient id="B" x1="168.995" y1="21.115" x2="-16.702" y2="76.055" gradientUnits="userSpaceOnUse"><stop offset="0" stop-color="#148eff"/><stop offset="1" stop-color="#d0c9ff"/></linearGradient></defs></svg>
